<?xml version="1.0" encoding="UTF-8"?>
<map version="1.10" tiledversion="1.12.2" orientation="isometric" renderorder="right-down" width="20" height="20" tilewidth="64" tileheight="32" infinite="0" nextlayerid="6" nextobjectid="23">
 <properties>
  <property name="Background" value="custom"/>
  <property name="Background Animation" value="/server/assets/bg/07a-centralarea.animation"/>
  <property name="Background Texture" value="/server/assets/bg/07a-centralarea.png"/>
  <property name="Name" value="CL_Net"/>
  <property name="Song" value="/server/assets/exe5-indoors.ogg"/>
 </properties>
 <tileset firstgid="1" source="../assets/rainbow_floor.tsx"/>
 <tileset firstgid="17" source="../assets/home_warp.tsx"/>
 <tileset firstgid="22" source="../assets/coffee.tsx"/>
 <tileset firstgid="26" source="../assets/vendor_desk.tsx"/>
 <tileset firstgid="30" source="../assets/BBS.tsx"/>
 <tileset firstgid="31" source="../assets/central_platform.tsx"/>
 <tileset firstgid="271" source="../assets/EXE6_Shortcuts.tsx"/>
 <tileset firstgid="303" source="../assets/bn6_securitycube.tsx"/>
 <tileset firstgid="317" source="../assets/bn6_pc_tile.tsx"/>
 <tileset firstgid="327" source="../assets/stairs.tsx"/>
 <tileset firstgid="330" source="../assets/Custom_Central_Tiles.tsx"/>
 <tileset firstgid="338" source="../assets/DenTownStairs.tsx"/>
 <tileset firstgid="347" source="../assets/ezlibs-assets/ezusers/admin-console.tsx"/>
 <layer id="1" name="Ground" width="20" height="20">
  <data encoding="csv">
0,0,0,0,0,0,0,0,0,0,0,0,0,0,0,0,0,0,0,0,
0,0,0,0,0,0,0,0,0,0,0,0,0,0,0,0,0,0,0,0,
0,0,0,0,0,0,0,0,0,0,0,0,0,0,0,0,0,0,0,0,
0,0,0,0,0,0,0,92,93,93,93,103,0,0,0,0,0,0,0,0,
0,0,0,0,0,0,338,91,102,102,102,113,0,0,0,0,0,0,0,0,
0,0,0,0,0,0,0,101,111,111,111,112,0,0,0,0,0,0,0,0,
0,0,0,0,0,0,0,0,0,82,0,0,0,0,0,0,0,0,0,0,
0,0,0,0,0,0,0,0,330,335,331,0,0,0,0,0,0,0,0,0,
0,0,212,213,223,0,0,330,331,334,330,331,0,0,152,153,163,0,0,0,
0,0,211,222,233,243,261,330,331,334,331,331,201,191,151,162,173,0,0,0,
0,0,221,231,232,0,0,331,330,335,331,330,0,0,161,171,172,0,0,0,
0,0,0,0,0,0,0,330,330,334,330,330,0,0,0,0,0,0,0,0,
0,0,0,0,0,0,0,0,331,82,330,0,0,0,0,0,0,0,0,0,
0,0,0,0,0,0,0,0,0,72,0,0,0,0,0,0,0,0,0,0,
0,0,0,0,0,0,0,0,32,33,43,0,0,0,0,0,0,0,0,0,
0,0,0,0,0,0,0,0,31,42,53,0,0,0,0,0,0,0,0,0,
0,0,0,0,0,0,0,0,41,51,52,0,0,0,0,0,0,0,0,0,
0,0,0,0,0,0,0,0,0,0,0,0,0,0,0,0,0,0,0,0,
0,0,0,0,0,0,0,0,0,0,0,0,0,0,0,0,0,0,0,0,
0,0,0,0,0,0,0,0,0,0,0,0,0,0,0,0,0,0,0,0
</data>
 </layer>
 <objectgroup id="2" name="Ground">
  <object id="1" type="Home Warp" gid="17" x="288" y="480" width="60" height="32"/>
  <object id="7" gid="26" x="295.5" y="140.5" width="35" height="45"/>
  <object id="8" gid="27" x="329" y="139" width="35" height="45"/>
  <object id="9" gid="28" x="344.5" y="134.5" width="35" height="45"/>
  <object id="11" gid="271" x="480" y="288" width="64" height="40"/>
  <object id="12" name="To ForestBBS" type="Radius Warp" gid="283" x="96" y="288" width="64" height="40">
   <properties>
    <property name="Activation Radius" type="float" value="1.5"/>
    <property name="Target Area" value="ForestBBS"/>
    <property name="Target Object" type="object" value="11"/>
    <property name="Warp Out" type="bool" value="true"/>
   </properties>
  </object>
  <object id="13" gid="303" x="432" y="304" width="48" height="52"/>
  <object id="15" name="News" type="Board" gid="2147483678" x="192" y="64" width="40" height="53">
   <properties>
    <property name="BBS" type="bool" value="true"/>
    <property name="Color" type="color" value="#ffaaaaff"/>
    <property name="Name" value="Welcome Board"/>
    <property name="Post Limit" type="int" value="30"/>
    <property name="Postable" type="bool" value="false"/>
   </properties>
  </object>
  <object id="16" name="Welcome_Program" type="NPC" x="265" y="457">
   <properties>
    <property name="Asset Name" value="prog"/>
    <property name="Dialogue Type" value="random"/>
    <property name="Direction" value="Down Right"/>
    <property name="Text 1" value="Welcome to ONB.clewis.dad!"/>
    <property name="Text 2" value="It's pretty lonely here!"/>
   </properties>
   <point/>
  </object>
  <object id="18" name="Info_Navi" type="NPC" x="327.5" y="124.5">
   <properties>
    <property name="Asset Name" value="official-navi-exe6_orange"/>
    <property name="Dialogue Type" value="first"/>
    <property name="Direction" value="Down Left"/>
    <property name="Text 1" value="This server is under construction. Come back another time."/>
   </properties>
   <point/>
  </object>
  <object id="20" name="ReturnForest" x="160" y="288">
   <point/>
  </object>
 </objectgroup>
 <layer id="4" name="Ground 2" width="20" height="20" offsetx="0" offsety="-16">
  <data encoding="csv">
0,0,0,0,0,0,0,0,0,0,0,0,0,0,0,0,0,0,0,0,
0,0,0,0,0,0,0,0,0,0,0,0,0,0,0,0,0,0,0,0,
0,0,332,332,332,332,0,0,0,0,0,0,0,0,0,0,0,0,0,0,
0,0,332,332,333,332,0,0,0,0,0,0,0,0,0,0,0,0,0,0,
0,0,332,332,332,332,340,0,0,0,0,0,0,0,0,0,0,0,0,0,
0,0,332,332,333,332,0,0,0,0,0,0,0,0,0,0,0,0,0,0,
0,0,332,332,333,332,0,0,0,0,0,0,0,0,0,0,0,0,0,0,
0,0,0,0,0,0,0,0,0,0,0,0,0,0,0,0,0,0,0,0,
0,0,0,0,0,0,0,0,0,0,0,0,0,0,0,0,0,0,0,0,
0,0,0,0,0,0,0,0,0,0,0,0,0,0,0,0,0,0,0,0,
0,0,0,0,0,0,0,0,0,0,0,0,0,0,0,0,0,0,0,0,
0,0,0,0,0,0,0,0,0,0,0,0,0,0,0,0,0,0,0,0,
0,0,0,0,0,0,0,0,0,0,0,0,0,0,0,0,0,0,0,0,
0,0,0,0,0,0,0,0,0,0,0,0,0,0,0,0,0,0,0,0,
0,0,0,0,0,0,0,0,0,0,0,0,0,0,0,0,0,0,0,0,
0,0,0,0,0,0,0,0,0,0,0,0,0,0,0,0,0,0,0,0,
0,0,0,0,0,0,0,0,0,0,0,0,0,0,0,0,0,0,0,0,
0,0,0,0,0,0,0,0,0,0,0,0,0,0,0,0,0,0,0,0,
0,0,0,0,0,0,0,0,0,0,0,0,0,0,0,0,0,0,0,0,
0,0,0,0,0,0,0,0,0,0,0,0,0,0,0,0,0,0,0,0
</data>
 </layer>
 <objectgroup id="5" name="Ground 2" offsetx="0" offsety="-16"/>
</map>
