<?xml version="1.0" encoding="UTF-8"?>
<map version="1.10" tiledversion="1.12.2" orientation="isometric" renderorder="right-down" width="10" height="10" tilewidth="64" tileheight="32" infinite="0" nextlayerid="8" nextobjectid="12">
 <properties>
  <property name="Background" value="custom"/>
  <property name="Background Animation" value="/server/assets/bg/04-greennohp.animation"/>
  <property name="Background Texture" value="/server/assets/bg/04-greennohp.png"/>
  <property name="Background Vel X" type="float" value="0.19999999999999996"/>
  <property name="Background Vel Y" type="float" value="0.1"/>
  <property name="Name" value="Forest_ChatR"/>
  <property name="Song" value="/server/assets/exe45-woodman.ogg"/>
 </properties>
 <tileset firstgid="1" source="../assets/central_platform.tsx"/>
 <tileset firstgid="241" source="../assets/Custom_Central_Tiles.tsx"/>
 <tileset firstgid="249" source="../assets/tree.tsx"/>
 <tileset firstgid="257" source="../assets/rainbow_floor.tsx"/>
 <tileset firstgid="273" source="../assets/BBS.tsx"/>
 <tileset firstgid="274" source="../assets/EXE6_Shortcuts.tsx"/>
 <tileset firstgid="306" source="../assets/warp.tsx"/>
 <layer id="1" name="Ground" width="10" height="10">
  <data encoding="csv">
0,0,0,0,0,0,0,0,0,0,
0,267,0,0,267,0,0,267,0,0,
0,0,0,0,0,0,0,0,0,0,
0,0,0,182,183,193,0,0,0,0,
0,267,0,181,192,203,213,215,215,185,
0,0,0,191,201,202,0,0,0,0,
0,0,0,0,0,0,0,0,0,0,
0,267,0,0,267,0,0,267,0,0,
0,0,0,0,0,0,0,0,0,0,
0,0,0,0,0,0,0,0,0,0
</data>
 </layer>
 <objectgroup id="2" name="Ground">
  <object id="1" gid="249" x="240" y="48" width="64" height="64"/>
  <object id="2" gid="249" x="144" y="48" width="64" height="64"/>
  <object id="3" gid="249" x="48" y="48" width="64" height="64"/>
  <object id="4" gid="249" x="48" y="144" width="64" height="64"/>
  <object id="5" gid="249" x="48" y="240" width="64" height="64"/>
  <object id="6" gid="249" x="144" y="240" width="64" height="64"/>
  <object id="7" gid="249" x="240" y="240" width="64" height="64"/>
  <object id="8" name="Forest" type="Board" gid="273" x="48" y="96" width="40" height="53">
   <properties>
    <property name="BBS" type="bool" value="true"/>
    <property name="Color" type="color" value="#ff55aa00"/>
    <property name="Name" value="Forest_BBS"/>
    <property name="Post Limit" type="int" value="30"/>
   </properties>
  </object>
  <object id="10" name="To default" type="Radius Warp" gid="307" x="288" y="128" width="61" height="32">
   <properties>
    <property name="Activation Radius" type="float" value="0.6"/>
    <property name="Target Area" value="default"/>
    <property name="Target Object" type="object" value="20"/>
    <property name="Warp Out" type="bool" value="true"/>
   </properties>
  </object>
  <object id="11" name="WarpInPoint" x="128" y="128">
   <point/>
  </object>
 </objectgroup>
 <layer id="6" name="Ground 2" width="10" height="10" offsetx="0" offsety="-16">
  <data encoding="csv">
0,0,0,0,0,0,0,0,0,0,
0,0,0,0,0,0,0,0,0,0,
0,0,0,0,0,0,0,0,0,0,
0,0,0,0,0,0,0,0,0,0,
0,0,0,0,0,0,0,0,0,0,
0,0,0,0,0,0,0,0,0,0,
0,0,0,0,0,0,0,0,0,0,
0,0,0,0,0,0,0,0,0,0,
0,0,0,0,0,0,0,0,0,0,
0,0,0,0,0,0,0,0,0,0
</data>
 </layer>
 <objectgroup id="4" name="Ground 2" offsetx="0" offsety="-16"/>
 <layer id="7" name="Ground 3" width="10" height="10" offsetx="0" offsety="-32">
  <data encoding="csv">
0,0,0,0,0,0,0,0,0,0,
0,0,0,0,0,0,0,0,0,0,
0,0,0,0,0,0,0,0,0,0,
0,0,0,0,0,0,0,0,0,0,
0,0,0,0,0,0,0,0,0,0,
0,0,0,0,0,0,0,0,0,0,
0,0,0,0,0,0,0,0,0,0,
0,0,0,0,0,0,0,0,0,0,
0,0,0,0,0,0,0,0,0,0,
0,0,0,0,0,0,0,0,0,0
</data>
 </layer>
 <objectgroup id="5" name="Ground 3" offsetx="0" offsety="-32"/>
</map>
